static/assets/images/icons/shapes.svg

<svg width="256" height="256" viewBox="0 0 256 256" fill="none" xmlns="http://www.w3.org/2000/svg">
<path d="M228 138.389C228 146.889 221.112 153.78 212.615 153.78H187.082L213.341 199.718C217.74 207.413 212.186 216.991 203.325 216.991H105.971C97.1151 216.991 91.5604 207.424 95.9481 199.729L112.18 171.262C107.883 173.764 103.391 175.673 98.7031 176.99C94.0156 178.307 89.1979 178.999 84.25 179.064C76.5026 179.064 69.2109 177.583 62.375 174.62C55.5391 171.657 49.582 167.575 44.5039 162.373C39.4258 157.171 35.4219 151.146 32.4922 144.298C29.5625 137.45 28.0651 130.076 28 122.174C28 114.339 29.4648 106.964 32.3945 100.051C35.3242 93.1368 39.3607 87.112 44.5039 81.9761C49.6471 76.8402 55.6042 72.7908 62.375 69.8277C69.1458 66.8647 76.4375 65.3503 84.25 65.2845C89.7839 65.2845 95.1875 66.0746 100.461 67.6549C105.734 69.2351 110.747 71.6385 115.5 74.8649V55.3905C115.5 46.8906 122.388 40 130.885 40H212.615C221.112 40 228 46.8906 228 55.3905V138.389ZM84.25 166.422C90.3047 166.422 95.9688 165.27 101.242 162.965C106.516 160.661 111.138 157.467 115.109 153.385C119.081 149.303 122.206 144.628 124.484 139.36C126.763 134.092 127.935 128.364 128 122.174C128 116.117 126.861 110.421 124.582 105.088C122.303 99.7543 119.178 95.0463 115.207 90.964C111.236 86.8816 106.613 83.721 101.34 81.4823C96.0664 79.2436 90.3698 78.0584 84.25 77.9267C78.1953 77.9267 72.5312 79.079 67.2578 81.3835C61.9844 83.6881 57.362 86.8487 53.3906 90.8652C49.4193 94.8817 46.2943 99.5567 44.0156 104.89C41.737 110.224 40.5651 115.985 40.5 122.174C40.5 128.298 41.6393 134.027 43.918 139.36C46.1966 144.693 49.3216 149.368 53.293 153.385C57.2643 157.401 61.8867 160.562 67.1602 162.867C72.4336 165.171 78.1302 166.356 84.25 166.422ZM194.9 204.349C197.855 204.349 199.707 201.154 198.239 198.589C191.477 186.764 184.763 174.989 178.098 163.262C171.445 151.558 164.745 139.806 157.997 128.006C156.52 125.424 152.8 125.424 151.324 128.006C144.575 139.806 137.875 151.558 131.223 163.262C124.557 174.989 117.843 186.764 111.081 198.589C109.614 201.154 111.465 204.349 114.42 204.349H194.9ZM215.5 56.4899C215.5 54.3649 213.778 52.6422 211.654 52.6422H131.846C129.722 52.6422 128 54.3649 128 56.4899V86.9145C131.971 91.8529 135.031 97.2851 137.18 103.211C139.328 109.137 140.435 115.327 140.5 121.779L144.636 114.509C149.06 106.733 160.264 106.731 164.69 114.505L179.855 141.138H211.654C213.778 141.138 215.5 139.415 215.5 137.29V56.4899Z" fill="black"/>
</svg>

<svg xmlns="http://www.w3.org/2000/svg" viewBox="0 0 256 256"><path d="M228 138.389c0 8.5-6.888 15.391-15.385 15.391h-25.533l26.259 45.938c4.399 7.695-1.155 17.273-10.016 17.273h-97.354c-8.856 0-14.41-9.567-10.023-17.262l16.232-28.467a57.7 57.7 0 0 1-13.477 5.728 56 56 0 0 1-14.453 2.074q-11.621 0-21.875-4.444t-17.871-12.247-12.012-18.075T28 122.174q0-11.753 4.395-22.123t12.109-18.075 17.871-12.148q10.156-4.445 21.875-4.544 8.301 0 16.211 2.37t15.039 7.21V55.392c0-8.5 6.888-15.391 15.385-15.391h81.73C221.112 40 228 46.89 228 55.39zM84.25 166.422q9.082 0 16.992-3.457t13.867-9.58a46.3 46.3 0 0 0 9.375-14.025q3.418-7.901 3.516-17.186 0-9.086-3.418-17.086-3.418-8.001-9.375-14.124t-13.867-9.482-17.09-3.555q-9.082 0-16.992 3.456-7.91 3.458-13.867 9.482-5.958 6.025-9.375 14.025-3.418 8-3.516 17.284 0 9.186 3.418 17.186t9.375 14.025 13.867 9.482q7.91 3.456 17.09 3.555m110.65 37.927c2.955 0 4.807-3.195 3.339-5.76q-10.143-17.737-20.141-35.327a15695 15695 0 0 0-20.101-35.256c-1.477-2.582-5.197-2.582-6.673 0q-10.123 17.7-20.101 35.256a15814 15814 0 0 1-20.142 35.327c-1.467 2.565.384 5.76 3.339 5.76zm20.6-147.86a3.847 3.847 0 0 0-3.846-3.847h-79.808A3.847 3.847 0 0 0 128 56.49v30.425a56.7 56.7 0 0 1 9.18 16.296q3.222 8.89 3.32 18.568l4.136-7.27c4.424-7.776 15.628-7.778 20.054-.004l15.165 26.633h31.799a3.847 3.847 0 0 0 3.846-3.848z"/></svg>
